X:1
T:Title
%%score { ( 1 3 ) | 2 }
L:1/8
Q:1/4=108
M:6/8
K:F
V:1 treble nm="Grand Piano"
V:3 treble 
V:2 bass 
V:1
 AAA F3 | AAA F3 | FA[Ac] [Bd][Ac][_A=B] | [Ac]6 | [EB][EB][EB] [EG]3 | AAA F3 | %6
w: Maurice~A.~Clifton * * *||||||
 EGG [=B,D][B,G][B,G] | C6 | C3[K:bass][K:treble] z3 | [CEA]3[K:bass][K:treble] z3 | %10
w: ||||
 z[K:bass] F,F,[K:treble] [F_A=Bd]3 | [FAc]6[K:bass] | C3[K:treble] z3 | %13
w: |||
 [CEA]3[K:bass][K:treble] z3 | z[K:bass] F,F,[K:treble] [F_A=Bd]3 | [FAc]6[K:bass] | %16
w: |||
 [FBd]3[K:bass][K:treble] z3 | [Fce]3[K:bass][K:treble] z3 | [FAc]3[K:bass][K:treble] z3 | %19
w: |||
 [A,CF]6[K:bass] | AAA c3 | [EG][EG][EG] [Ec]3 | FFF FFF |[M:5/8] F- F3 z |[M:1/8] c |[M:3/4] c6 | %26
w: |||||||
 c6 | [Ec]2 [E^c] [Ee]2 [Ed] | c6 | A6 | A6 | =B2 B e2 d | c6[K:bass] | C4[K:treble] z2 | %34
w: ||||||||
 [CEA]4[K:bass][K:treble] z2 | z[K:bass] F, F,[K:treble] [F_A=Bd]3 | [FAc]6[K:bass] | %37
w: |||
 C4[K:treble] z2 | [CEA]4[K:bass][K:treble] z2 | z[K:bass] F, F,[K:treble] [F_A=Bd]3 | %40
w: |||
 [FAc]6[K:bass] | [FBd]4[K:bass][K:treble] z2 | [Fce]4[K:bass][K:treble] z2 | %43
w: |||
 [FAc]4[K:bass][K:treble] z2 | [A,CF]6[K:bass] | AA A c3 | [EG][EG] [EG] [Ec]3 | FF FF FF | %48
w: |||||
[M:13/8] F- F3 z z z z z z z z2 |] %49
w: |
V:2
 [F,CF][F,CF][F,CF] [F,A,]3 | [F,CF][F,CF][F,CF] [F,A,]3 | [F,A,][F,CF][F,F] [F,F][F,F][F,F] | %3
 [F,F]2 F, F,3 | [C,C][C,C][C,C] [C,C]3 | [F,CF][F,CF][F,CF] [F,A,]3 | %6
 [G,C][F,G,C][E,G,C] [G,,F,][G,,D,][G,,F,] | [C,E,]6 | [C,,C,]C,,C,, [C,,C,]3 | %9
 [C,,C,]C,,C,, [C,,C,]3 | [F,,F,]F,,F,, [F,,F,]3 | [F,,F,]F,,F,, F,,3 | [C,,C,]C,,C,, [C,,C,]3 | %13
 [C,,C,]C,,C,, [C,,C,]3 | [F,,F,]F,,F,, [F,,F,]3 | [F,,F,]F,,F,, F,,3 | %16
 [B,,,B,,]B,,,B,,, [B,,,B,,]3 | [B,,,B,,]B,,,B,,, [B,,,B,,]3 | [F,,F,]F,,F,, [F,,F,]3 | %19
 [F,,F,]F,,F,, F,,3 | [F,CF][F,CF][F,CF] [F,A,F]3 | [C,B,][C,B,][C,B,] [C,B,]3 | %22
 [F,A,C][F,A,C][F,A,C] [F,B,D][F,B,D][F,B,D] |[M:5/8] [F,A,C]- [F,A,C]3 z |[M:1/8] z | %25
[M:3/4] z2 [F,A,] .[F,A,]3 | z2 [G,B,] [G,B,]2 [G,B,E] | [C,B,]2 [C,B,] [C,B,]2 [C,B,] | %28
 [F,A,F]2 [F,A,] .[F,A,]3 | z2 [A,,E,] .[A,,E,]3 | z2 [D,F,] [D,F,]2 [D,D] | %31
 [G,DF]2 [G,DF] [G,=B,F]2 [G,B,F] | [C,C]2 [C,C] [C,C]3 | [C,,C,]C,, C,, [C,,C,]3 | %34
 [C,,C,]C,, C,, [C,,C,]3 | [F,,F,]F,, F,, [F,,F,]3 | [F,,F,]F,, F,, F,,3 | %37
 [C,,C,]C,, C,, [C,,C,]3 | [C,,C,]C,, C,, [C,,C,]3 | [F,,F,]F,, F,, [F,,F,]3 | %40
 [F,,F,]F,, F,, F,,3 | [B,,,B,,]B,,, B,,, [B,,,B,,]3 | [B,,,B,,]B,,, B,,, [B,,,B,,]3 | %43
 [F,,F,]F,, F,, [F,,F,]3 | [F,,F,]F,, F,, F,,3 | [F,CF][F,CF] [F,CF] [F,A,F]3 | %46
 [C,B,][C,B,] [C,B,] [C,B,]3 | [F,A,C][F,A,C] [F,A,C][F,B,D] [F,B,D][F,B,D] | %48
[M:13/8] [F,A,C]- [F,A,C]3 z z z z z z z z2 |] %49
V:3
 x6 | x6 | x6 | z2 C C3 | x6 | x6 | x6 | x6 | z[K:bass] C,C,[K:treble] [DEB]3 | %9
 z[K:bass] C,C,[K:treble] [B,EG]3 | [A,CF]3[K:bass][K:treble] z3 | z[K:bass] F,F, F,3 | %12
 z C,C,[K:treble] [DEB]3 | z[K:bass] C,C,[K:treble] [B,EG]3 | [A,CF]3[K:bass][K:treble] z3 | %15
 z[K:bass] F,F, F,3 | z[K:bass] B,,B,,[K:treble] [Fdf]3 | z[K:bass] B,,B,,[K:treble] [FBd]3 | %18
 z[K:bass] F,F,[K:treble] [CFA]3 | z[K:bass] F,F, F,3 | x6 | x6 | x6 |[M:5/8] x5 |[M:1/8] x | %25
[M:3/4] z2 F F2 c | z2 E E2 c | x6 | z2 F F2 A | z2 ^C C2 A | z2 D D2 [FA] | x6 | E2 E[K:bass] E3 | %33
 z C, C,[K:treble] [DEB]3 | z[K:bass] C, C,[K:treble] [B,EG]3 | [A,CF]4[K:bass][K:treble] z2 | %36
 z[K:bass] F, F, F,3 | z C, C,[K:treble] [DEB]3 | z[K:bass] C, C,[K:treble] [B,EG]3 | %39
 [A,CF]4[K:bass][K:treble] z2 | z[K:bass] F, F, F,3 | z[K:bass] B,, B,,[K:treble] [Fdf]3 | %42
 z[K:bass] B,, B,,[K:treble] [FBd]3 | z[K:bass] F, F,[K:treble] [CFA]3 | z[K:bass] F, F, F,3 | x6 | %46
 x6 | x6 |[M:13/8] x13 |] %49

